X:1
T:Seufzer
T:Hölty
T:Franz Schubert (1815)
%%score 1 2 ( 3 4 5 6 )
L:1/8
Q:1/4=93
M:3/8
K:F
V:1 treble-8 nm="Bariton" snm="Ba."
V:2 treble nm="Piano" snm="Pno."
V:3 bass nm="Piano" snm="Pno."
V:4 bass 
V:5 bass 
V:6 bass 
V:1
"^(ziemlich geschwind)" z z A | A2 G | F2 E | D2 ^C | D2 F | E3- | EAG | G2 F | z z A | G3- | GcB | %11
w: Die|Nach- ti-|gall singt|u ber-|all auf|grü-|* * nen|Rei- sen|die|be-|* * sten|
 B2 A | z z A | d3- | d2 ^F | G3 | z z B | A3- | ABA | D2 z | z z c | c2 B | A2 G | F2 E | F2 A | %25
w: Wei- sen.|dass|rings-|* um|Wald|und|U-|* * fer|schallt.|Manch|jung- es|Paar geht|dort, wo|klar das|
 c3- | cdG | B2 A | z z F/G/ | A3- | ABE | G2 F | z z D | d3- | d2 ^F | G3- | G z G | c3- | cBG | %39
w: Bäch-|* * lein|rau- schet,|und *|steht-|* * und|lau- schet|mit|fro-|* hem|Sinn-|* der|Sän-|* * ge|
 F2 z | z z A | A2 G | F2 E | D2 ^C | D2 F | ^F3- | FGA | A2 G | z z G | ^F3- | FGA | A2 G | %52
w: rin.|Ich|hö- re|bang im|dü- stern|Gang der|Nach-|* * ti-|gal- len|Ge-|sän-|* * ge|schal- len;|
 z z D | B3- | B2 E | A2 D/E/ | F2 E | D2 z | z3 | z3 | z3 | z3 | z3 | z3 | z3[Q:1/4=82] | %65
w: denn|auch-|* al-|lein irr *|ich im|Hain.||||||||
 z3[Q:1/4=71][Q:1/4=60] |] %66
w: |
V:2
 z3 | F,/A,/D/A,/E,/A,/ | F,/A,/D/A,/G,/A,/ | F,/A,/D/A,/E,/A,/ | F,/A,/D/A,/F,/A,/ | %5
 G,/A,/E/A,/G,/A,/ | G,/A,/E/A,/G,/A,/ | F,/A,/D/A,/F,/A,/ | F,/A,/D/A,/F,/A,/ | B,/C/G/C/B,/C/ | %10
 B,/C/G/C/B,/C/ | A,/C/F/C/A,/C/ | A,/C/F/C/A,/C/ | _G,/A,/D/A,/G,/A,/ | _G,/A,/D/A,/G,/A,/ | %15
 G,/B,/D/B,/G,/B,/ | G,/B,/D/B,/G,/B,/ | F,/A,/D/A,/F,/A,/ | E,/A,/_D/A,/E,/A,/ | %19
 F,/A,/D/A,/F,/A,/ | F,/A,/D/C/B,/G,/ | A,/C/F/C/G,/C/ | A,/C/F/C/B,/C/ | A,/C/F/C/G,/C/ | %24
 A,/C/F/C/A,/C/ | B,/C/G/C/B,/C/ | B,/C/G/C/B,/C/ | A,/C/F/C/A,/C/ | A,/D/F/D/A,/D/ | %29
 G,/A,/E/A,/G,/A,/ | G,/A,/E/A,/G,/A,/ | F,/A,/D/A,/F,/A,/ | F,/A,/D/A,/F,/A,/ | B,/D/G/D/B,/D/ | %34
 C/D/_G/D/C/D/ | B,/D/G/D/B,/D/ | G,/D/F/D/G,/D/ | A,/C/F/C/A,/C/ | B,/C/E/C/B,/C/ | %39
 A,/C/F/C/A,/C/ | G,/A,/_D/A,/G,/A,/ | F,/A,/D/A,/E,/A,/ | F,/A,/D/A,/G,/A,/ | F,/A,/D/A,/E,/A,/ | %44
 F,/A,/D/A,/F,/A,/ | _G,/A,/_E/A,/G,/A,/ | _G,/A,/_E/A,/G,/A,/ | G,/B,/D/B,/G,/B,/ | %48
 G,/B,/D/B,/G,/B,/ | _G,/A,/_E/A,/G,/A,/ | _G,/A,/_E/A,/G,/A,/ | G,/B,/D/B,/G,/B,/ | %52
 G,/B,/D/B,/G,/B,/ | B,/D/E/D/B,/D/ | B,/D/E/D/_C/D/ | A,/D/F/D/A,/D/ | A,/D/F/D/G,/_D/ | %57
 [Aa]2 [Gg] | [Ff]2 [Ee] | [Dd]2 [_D_d] | [Dd]2 A | [Dd]2 [_D_d] | [Dd]2 A | [Dd]3- | [Dd]3- | %65
 [Dd]3 |] %66
V:3
 z3 | D,,3- | D,,3 | D,,3- | D,,3 | _D,3- | D,3 | D,3 | D,,2 D, | E,3 | C,3 | F,3 | F,,3 | %13
 [B,,,B,,]3- | [B,,,B,,]3 | [B,,,B,,]3- | [B,,,B,,]2 [G,,,G,,] | [A,,,A,,]3- | [A,,,A,,]3 | D,,3- | %20
 D,,2 E,, | F,,3 | F,3 | F,,3 | F,3 | E,3 | C,3 | F,3 | D,3 | _D,3 | A,,3 | D,3 | D,,3 | G,,3 | %34
 A,,3 | B,,3- | B,,2 _C, | C,3 | C,,3 | F,,3 | E,,3 | D,,3 | D,3 | D,,3 | D,3 | C,,3 | C,3 | %47
 B,,,3 | B,,3 | C,,3 | C,3 | B,,,3 | B,,3 | G,,,3 | G,,2 _A,, | A,,3- | A,,2 A,, | %57
 F,/A,/D/A,/E,/A,/ | F,/A,/D/A,/G,/A,/ | F,/A,/D/A,/E,/A,/ | F,/A,/D/A,/G,/A,/ | %61
 F,/A,/D/A,/E,/A,/ | F,/A,/D/A,/G,/A,/ | F,/A,/D/A,/F,/A,/ | D/A,/.F, z | D,,3 |] %66
V:4
 x3 | x3 | x3 | x3 | x3 | x3 | x3 | x3 | x3 | x3 | x3 | x3 | x3 | x3 | x3 | x3 | x3 | x3 | x3 | %19
 x3 | x3 | x3 | x3 | x3 | x3 | x3 | x3 | x3 | x3 | x3 | x3 | x3 | x3 | x3 | x3 | x3 | x3 | x3 | %38
 x3 | x3 | x3 | x3 | x3 | x3 | x3 | x3 | x3 | x3 | x3 | x3 | x3 | x3 | x3 | x3 | x3 | x3 | x3 | %57
 D,3- | D,3 | D,3- | D,3 | D,3- | D,3 | D,3- | D,3/2D,3/2- | D,3 |] %66
V:5
 x3 | x3 | x3 | x3 | x3 | x3 | x3 | x3 | x3 | x3 | x3 | x3 | x3 | x3 | x3 | x3 | x3 | x3 | x3 | %19
 x3 | x3 | x3 | x3 | x3 | x3 | x3 | x3 | x3 | x3 | x3 | x3 | x3 | x3 | x3 | x3 | x3 | x3 | x3 | %38
 x3 | x3 | x3 | x3 | x3 | x3 | x3 | x3 | x3 | x3 | x3 | x3 | x3 | x3 | x3 | x3 | x3 | x3 | x3 | %57
 x3 | x3 | x3 | x3 | x3 | x3 | x3 | x2 A,,- | A,,3 |] %66
V:6
 x3 | x3 | x3 | x3 | x3 | x3 | x3 | x3 | x3 | x3 | x3 | x3 | x3 | x3 | x3 | x3 | x3 | x3 | x3 | %19
 x3 | x3 | x3 | x3 | x3 | x3 | x3 | x3 | x3 | x3 | x3 | x3 | x3 | x3 | x3 | x3 | x3 | x3 | x3 | %38
 x3 | x3 | x3 | x3 | x3 | x3 | x3 | x3 | x3 | x3 | x3 | x3 | x3 | x3 | x3 | x3 | x3 | x3 | x3 | %57
 x3 | x3 | x3 | x3 | x3 | x3 | x3 | x5/2 F,,/- | F,,3 |] %66

